src/icons/svg/add.svg

<?xml version="1.0" encoding="UTF-8"?>
<svg width="16px" height="16px" viewBox="0 0 16 16" version="1.1" xmlns="http://www.w3.org/2000/svg" xmlns:xlink="http://www.w3.org/1999/xlink">
    <title>新增子任务</title>
    <defs>
        <linearGradient x1="0%" y1="100%" x2="100%" y2="0%" id="linearGradient-1">
            <stop stop-color="#3559F2" offset="0%"></stop>
            <stop stop-color="#4162EE" offset="100%"></stop>
        </linearGradient>
    </defs>
    <g id="页面" stroke="none" stroke-width="1" fill="none" fill-rule="evenodd">
        <g id="4任务发起-我的任务" transform="translate(-1589.000000, -386.000000)" fill="#2878FF">
            <g id="编组-19" transform="translate(1574.000000, 378.000000)">
                <g id="icon-新增子任务" transform="translate(15.000000, 8.000000)">
                    <path d="M3.40001758,9.40001758 L6.60000195,9.40001758 L6.60000195,12.5999824 C6.60000195,12.8399422 6.80004004,13 7,13 C7.20003809,13 7.40001758,12.8399422 7.40001758,12.5999824 L7.40001758,9.40001758 L10.600002,9.40001758 C10.80004,9.40001758 11,9.23994023 11,9 C11,8.75998164 10.80004,8.60000195 10.600002,8.60000195 L7.40001758,8.60000195 L7.40001758,5.40001758 C7.40001758,5.15999922 7.20003809,5 7,5 C6.80004004,5 6.60000195,5.15999922 6.60000195,5.40001758 L6.60000195,8.60000195 L3.40001758,8.60000195 C3.20005762,8.60000195 3,8.75998164 3,9 C3,9.23994023 3.20005762,9.40001758 3.40001758,9.40001758 Z" id="Fill-1"></path>
                    <path d="M15.5357151,0 L3.4642849,0 C3.23218779,0 3,0.185691292 3,0.464284905 C3,0.742901188 3.23218779,0.928592479 3.4642849,0.928592479 L15.0714075,0.928592479 L15.0714075,12.5357151 C15.0714075,12.814218 15.303618,13 15.5357151,13 C15.7678122,13 16,12.814218 16,12.5357151 L16,0.464284905 C16,0.185691292 15.7678122,0 15.5357151,0 Z" id="Fill-2"></path>
                    <path d="M13.533423,2 L0.466668186,2 C0.23328852,2 0,2.18664449 0,2.46657704 L0,15.5333318 C0,15.8133555 0.23328852,16 0.466668186,16 L13.533423,16 C13.7667115,16 14,15.8133555 14,15.5333318 L14,2.46657704 C14,2.18664449 13.7667115,2 13.533423,2 Z M0.933359158,15.0666408 L13.066732,15.0666408 L13.066732,2.93326801 L0.933359158,2.93326801 L0.933359158,15.0666408 Z" id="Fill-3"></path>
                </g>
            </g>
        </g>
    </g>
</svg>

<svg width="16" height="16" xmlns="http://www.w3.org/2000/svg">
  <g fill-rule="evenodd">
    <path
      d="M3.4 9.4h3.2v3.2a.4.4 0 0 0 .8 0V9.4h3.2a.4.4 0 0 0 0-.8H7.4V5.4a.4.4 0 0 0-.8 0v3.2H3.4A.4.4 0 0 0 3 9c0 .24.2.4.4.4zM15.536 0H3.464A.465.465 0 0 0 3 .464c0 .279.232.465.464.465h11.607v11.607a.465.465 0 0 0 .929 0V.464A.465.465 0 0 0 15.536 0z" />
    <path
      d="M13.533 2H.467A.468.468 0 0 0 0 2.467v13.066c0 .28.233.467.467.467h13.066a.468.468 0 0 0 .467-.467V2.467A.468.468 0 0 0 13.533 2zM.933 15.067h12.134V2.933H.933v12.134z" />
  </g>
</svg>
